X: 16753
T: Hare In The Corn, The
R: jig
M: 6/8
K: Dmajor
F2 A AFA|BdB AFE|F2F EDE|F2 D D2E|
F2 A AFA|BdB AFA|Bcd edc|1 d2A B2A:|2 d3 d2e||
|:f2f fed|g2 e ede|f2f fef|a2a bag|
f2f fed|g2 e edB|ABd edc|1 d3 d2e:|2 d2A B2A||

